img/social-google.svg

<svg width="492" height="378" viewBox="0 0 492 378" xmlns="http://www.w3.org/2000/svg"><title>Group</title><g fill="#FFF" fill-rule="evenodd"><path d="M377.472 167.957H201.319v58.718H308.79c-16.032 51.048-63.714 88.077-120.055 88.077-69.492 0-125.823-56.335-125.823-125.824 0-69.492 56.333-125.823 125.823-125.823 34.994 0 66.645 14.289 89.452 37.346l42.622-46.328C286.769 20.768 240.159.194 188.735.194 84.5.193 0 84.693 0 188.928c0 104.235 84.5 188.737 188.736 188.737 91.307 0 171.248-64.844 188.737-150.989v-58.718l-.001-.001zM491.858 167.857h-36.031v-36.031h-30.886v36.031H388.91v30.883h36.031v36.032h30.886V198.74h36.031v-30.883z"/></g></svg>

<?xml version="1.0" encoding="UTF-8" standalone="no"?>
<svg width="492px" height="378px" viewBox="0 0 492 378" version="1.1" xmlns="http://www.w3.org/2000/svg" xmlns:xlink="http://www.w3.org/1999/xlink">
    <!-- Generator: Sketch 3.6.1 (26313) - http://www.bohemiancoding.com/sketch -->
    <title>Group</title>
    <desc>Created with Sketch.</desc>
    <defs></defs>
    <g id="Page-1" stroke="none" stroke-width="1" fill="none" fill-rule="evenodd">
        <g id="social-media" fill="#FFFFFF">
            <g id="Group">
                <g id="Shape">
                    <path d="M377.472,167.957 L201.319,167.957 L201.319,226.675 L308.79,226.675 C292.758,277.723 245.076,314.752 188.735,314.752 C119.243,314.752 62.912,258.417 62.912,188.928 C62.912,119.436 119.245,63.105 188.735,63.105 C223.729,63.105 255.38,77.394 278.187,100.451 L320.809,54.123 C286.769,20.768 240.159,0.194 188.735,0.194 C84.5,0.193 0,84.693 0,188.928 C0,293.163 84.5,377.665 188.736,377.665 C280.043,377.665 359.984,312.821 377.473,226.676 L377.473,167.958 L377.472,167.957 L377.472,167.957 L377.472,167.957 Z"></path>
                    <path d="M491.858,167.857 L455.827,167.857 L455.827,131.826 L424.941,131.826 L424.941,167.857 L388.91,167.857 L388.91,198.74 L424.941,198.74 L424.941,234.772 L455.827,234.772 L455.827,198.74 L491.858,198.74 L491.858,167.857 Z"></path>
                </g>
            </g>
        </g>
    </g>
</svg>
